public/images/apps.svg

<svg width="160" height="64" viewBox="0 0 160 64" fill="none" xmlns="http://www.w3.org/2000/svg">
<g clip-path="url(#clip0)">
<rect x="12.7402" y="30.043" width="54.9569" height="54.9569" rx="14.6552" fill="currentColor"/>
<g clip-path="url(#clip1)">
<path d="M48.4909 48.2569L51.3003 43.2843C51.4588 43.0055 51.363 42.6514 51.0938 42.4894C50.8247 42.3274 50.4744 42.4216 50.3196 42.7004L47.4733 47.7371C45.3018 46.7237 42.8574 46.1586 40.2287 46.1586C37.5999 46.1586 35.1555 46.7237 32.984 47.7371L30.1377 42.7004C29.9792 42.4216 29.6326 42.3274 29.3598 42.4894C29.087 42.6514 28.9948 43.0055 29.1533 43.2843L31.9627 48.2569C27.1182 50.9391 23.8369 55.9495 23.2949 61.8149H57.1624C56.6205 55.9494 53.3392 50.9391 48.491 48.2569H48.4909ZM32.4531 56.9553C31.6678 56.9553 31.0336 56.3036 31.0336 55.5049C31.0336 54.7025 31.6715 54.0546 32.4531 54.0546C33.2384 54.0546 33.8725 54.7063 33.8725 55.5049C33.8762 56.3036 33.2384 56.9553 32.4531 56.9553ZM48.0006 56.9553C47.2153 56.9553 46.5812 56.3036 46.5812 55.5049C46.5812 54.7025 47.219 54.0546 48.0006 54.0546C48.7859 54.0546 49.42 54.7063 49.42 55.5049C49.4237 56.3036 48.7859 56.9553 48.0006 56.9553Z" fill="#F8F8F8"/>
</g>
<path d="M126.9 7.32187C126.384 5.96406 125.147 4.05625 123.394 2.69844C122.363 1.925 121.194 1.16875 119.544 0.6875C117.756 0.171875 115.556 0 112.875 0H88.125C85.4266 0 83.2438 0.171875 81.4734 0.704687C79.8234 1.20312 78.6031 1.94219 77.6062 2.71562C75.8531 4.05625 74.6156 5.98125 74.0828 7.33906C73.0172 10.0719 73 13.1656 73 15.125V39.875C73 41.8344 73.0172 44.9281 74.0828 47.6781C74.6156 49.0359 75.8531 50.9437 77.6062 52.3016C78.6203 53.075 79.8234 53.8312 81.4734 54.3125C83.2438 54.8281 85.4266 55 88.125 55H112.875C115.573 55 117.756 54.8281 119.527 54.2953C121.177 53.7969 122.397 53.0578 123.394 52.2844C125.147 50.9438 126.384 49.0187 126.917 47.6609C128 44.9281 128 41.8172 128 39.8578V15.1078C128 13.1484 127.983 10.0547 126.917 7.30469L126.9 7.32187ZM83.8969 37.8125H81.8516V25.5922H83.8969V37.8125ZM82.8828 23.5297C82.1953 23.5297 81.6109 22.9625 81.6109 22.2578C81.6109 21.5531 82.1781 20.9859 82.8828 20.9859C83.5875 20.9859 84.1719 21.5531 84.1719 22.2578C84.1547 22.9625 83.5875 23.5297 82.8828 23.5297ZM95.1719 38.1219C89.775 38.1219 86.3719 34.2719 86.3719 28.1359C86.3719 22 89.775 18.1328 95.1719 18.1328C100.569 18.1328 103.972 22 103.972 28.1359C103.972 34.2719 100.569 38.1219 95.1719 38.1219ZM112.978 38.1219C108.922 38.1219 106.069 35.8875 105.88 32.5531H107.719C107.925 34.8734 110.108 36.4547 113.15 36.4547C116.055 36.4547 118.134 34.8734 118.134 32.6906C118.134 30.8859 116.88 29.8031 114.009 29.0812L111.603 28.4625C108.011 27.5516 106.412 26.0391 106.412 23.4781C106.412 20.35 109.231 18.1156 113.047 18.1156C116.828 18.1156 119.578 20.35 119.698 23.4266H117.859C117.688 21.2437 115.745 19.7828 112.995 19.7828C110.314 19.7828 108.32 21.2781 108.32 23.4094C108.32 25.0766 109.523 26.0562 112.377 26.7781L114.473 27.3109C118.375 28.2906 120.008 29.7859 120.008 32.4844C120.008 35.8875 117.275 38.1219 112.978 38.1219ZM102.098 28.1359C102.098 33.2062 99.4172 36.4203 95.1719 36.4203C90.9266 36.4203 88.2625 33.2062 88.2625 28.1359C88.2625 23.0484 90.9266 19.8344 95.1719 19.8344C99.4172 19.8344 102.098 23.0484 102.098 28.1359Z" fill="currentColor"/>
</g>
<defs>
<clipPath id="clip0">
<rect width="160" height="64" fill="white"/>
</clipPath>
<clipPath id="clip1">
<rect width="33.8901" height="30.2263" fill="white" transform="translate(23.2734 42.4062)"/>
</clipPath>
</defs>
</svg>

<svg width="160" height="64" fill="none" xmlns="http://www.w3.org/2000/svg"><g clip-path="url(#clip0)"><rect x="12.74" y="30.043" width="54.957" height="54.957" rx="14.655" fill="currentColor"/><g clip-path="url(#clip1)"><path d="M48.49 48.257l2.81-4.973a.59.59 0 00-.206-.795.557.557 0 00-.774.211l-2.847 5.037c-2.171-1.013-4.616-1.578-7.244-1.578-2.63 0-5.073.565-7.245 1.578L30.138 42.7a.56.56 0 00-.778-.21.587.587 0 00-.207.794l2.81 4.973c-4.845 2.682-8.126 7.693-8.668 13.558h33.867c-.541-5.866-3.823-10.876-8.671-13.558zm-16.037 8.698c-.785 0-1.42-.651-1.42-1.45 0-.803.639-1.45 1.42-1.45.785 0 1.42.651 1.42 1.45.003.799-.635 1.45-1.42 1.45zm15.548 0c-.786 0-1.42-.651-1.42-1.45 0-.803.638-1.45 1.42-1.45.785 0 1.419.651 1.419 1.45.004.799-.634 1.45-1.42 1.45z" fill="#F8F8F8"/></g><path d="M126.9 7.322c-.516-1.358-1.753-3.266-3.506-4.624-1.031-.773-2.2-1.53-3.85-2.01C117.756.171 115.556 0 112.875 0h-24.75c-2.698 0-4.881.172-6.652.705a11.647 11.647 0 00-3.867 2.01c-1.753 1.341-2.99 3.266-3.523 4.624C73.017 10.072 73 13.166 73 15.125v24.75c0 1.96.017 5.053 1.083 7.803.533 1.358 1.77 3.266 3.523 4.624 1.014.773 2.217 1.53 3.867 2.01 1.77.516 3.954.688 6.652.688h24.75c2.698 0 4.881-.172 6.652-.705a11.647 11.647 0 003.867-2.01c1.753-1.341 2.99-3.266 3.523-4.624C128 44.928 128 41.817 128 39.858v-24.75c0-1.96-.017-5.053-1.083-7.803l-.017.017zm-43.003 30.49h-2.045v-12.22h2.045v12.22zM82.883 23.53a1.28 1.28 0 01-1.272-1.272c0-.705.567-1.272 1.272-1.272.705 0 1.289.567 1.289 1.272a1.295 1.295 0 01-1.29 1.272zm12.289 14.592c-5.397 0-8.8-3.85-8.8-9.986 0-6.136 3.403-10.003 8.8-10.003s8.8 3.867 8.8 10.003-3.403 9.986-8.8 9.986zm17.806 0c-4.056 0-6.909-2.234-7.098-5.569h1.839c.206 2.32 2.389 3.902 5.431 3.902 2.905 0 4.984-1.582 4.984-3.764 0-1.805-1.254-2.888-4.125-3.61l-2.406-.619c-3.592-.91-5.191-2.423-5.191-4.984 0-3.128 2.819-5.362 6.635-5.362 3.781 0 6.531 2.234 6.651 5.31h-1.839c-.171-2.182-2.114-3.643-4.864-3.643-2.681 0-4.675 1.495-4.675 3.626 0 1.668 1.203 2.647 4.057 3.37l2.096.532c3.902.98 5.535 2.475 5.535 5.173 0 3.404-2.733 5.638-7.03 5.638zm-10.88-9.986c0 5.07-2.68 8.284-6.926 8.284-4.245 0-6.91-3.214-6.91-8.284 0-5.088 2.665-8.302 6.91-8.302s6.926 3.214 6.926 8.302z" fill="currentColor"/></g><defs><clipPath id="clip0"><path fill="#fff" d="M0 0h160v64H0z"/></clipPath><clipPath id="clip1"><path fill="#fff" transform="translate(23.273 42.406)" d="M0 0h33.89v30.226H0z"/></clipPath></defs></svg>
